evolvere-2-blue-mono/apps/16/android-studio.svg

<?xml version="1.0" encoding="UTF-8" standalone="no"?>
<!-- Created with Inkscape (http://www.inkscape.org/) -->

<svg
   xmlns:dc="http://purl.org/dc/elements/1.1/"
   xmlns:cc="http://creativecommons.org/ns#"
   xmlns:rdf="http://www.w3.org/1999/02/22-rdf-syntax-ns#"
   xmlns:svg="http://www.w3.org/2000/svg"
   xmlns="http://www.w3.org/2000/svg"
   xmlns:sodipodi="http://sodipodi.sourceforge.net/DTD/sodipodi-0.dtd"
   xmlns:inkscape="http://www.inkscape.org/namespaces/inkscape"
   version="1.1"
   width="16"
   height="16"
   id="svg2"
   inkscape:version="0.92.2 5c3e80d, 2017-08-06"
   sodipodi:docname="android-studio.svg">
  <sodipodi:namedview
     pagecolor="#ffffff"
     bordercolor="#666666"
     borderopacity="1"
     objecttolerance="10"
     gridtolerance="10"
     guidetolerance="10"
     inkscape:pageopacity="0"
     inkscape:pageshadow="2"
     inkscape:window-width="1920"
     inkscape:window-height="1033"
     id="namedview6"
     showgrid="true"
     inkscape:zoom="29.5"
     inkscape:cx="9.5509796"
     inkscape:cy="10.780028"
     inkscape:window-x="-10"
     inkscape:window-y="25"
     inkscape:window-maximized="1"
     inkscape:current-layer="svg2"
     inkscape:snap-global="true"
     inkscape:snap-bbox="true"
     inkscape:bbox-paths="true"
     inkscape:bbox-nodes="true"
     inkscape:snap-bbox-edge-midpoints="true"
     inkscape:snap-bbox-midpoints="true"
     inkscape:object-paths="true"
     inkscape:snap-intersection-paths="true"
     inkscape:snap-smooth-nodes="true"
     inkscape:snap-midpoints="true"
     inkscape:snap-object-midpoints="true"
     inkscape:snap-center="true">
    <inkscape:grid
       type="xygrid"
       id="grid2982"
       empspacing="5"
       visible="true"
       enabled="true"
       snapvisiblegridlinesonly="true" />
  </sodipodi:namedview>
  <defs
     id="defs4" />
  <metadata
     id="metadata7">
    <rdf:RDF>
      <cc:Work
         rdf:about="">
        <dc:format>image/svg+xml</dc:format>
        <dc:type
           rdf:resource="http://purl.org/dc/dcmitype/StillImage" />
        <dc:title></dc:title>
      </cc:Work>
    </rdf:RDF>
  </metadata>
  <path
     style="color:#000000;font-style:normal;font-variant:normal;font-weight:normal;font-stretch:normal;font-size:medium;line-height:normal;font-family:sans-serif;font-variant-ligatures:normal;font-variant-position:normal;font-variant-caps:normal;font-variant-numeric:normal;font-variant-alternates:normal;font-feature-settings:normal;text-indent:0;text-align:start;text-decoration:none;text-decoration-line:none;text-decoration-style:solid;text-decoration-color:#000000;letter-spacing:normal;word-spacing:normal;text-transform:none;writing-mode:lr-tb;direction:ltr;text-orientation:mixed;dominant-baseline:auto;baseline-shift:baseline;text-anchor:start;white-space:normal;shape-padding:0;clip-rule:nonzero;display:inline;overflow:visible;visibility:visible;opacity:1;isolation:auto;mix-blend-mode:normal;color-interpolation:sRGB;color-interpolation-filters:linearRGB;solid-color:#000000;solid-opacity:1;vector-effect:none;fill:#f1f3f5;fill-opacity:0.90288714;fill-rule:nonzero;stroke:none;stroke-width:2;stroke-linecap:butt;stroke-linejoin:miter;stroke-miterlimit:4;stroke-dasharray:none;stroke-dashoffset:0;stroke-opacity:1;marker:none;color-rendering:auto;image-rendering:auto;shape-rendering:auto;text-rendering:auto;enable-background:accumulate;font-variant-east_asian:normal"
     d="M 6.828125 0 C 6.2758631 5.5217905e-05 5.8281802 0.44773812 5.828125 1 L 5.828125 1.0078125 L 5.828125 1.5957031 C 5.0545336 1.8245089 4.4277344 2.4229391 4.4277344 3.2675781 L 4.4277344 5.5527344 C 4.428313 5.849534 4.5606894 6.1307444 4.7890625 6.3203125 C 4.8289065 6.3666255 4.8330736 6.4838931 4.8691406 6.5195312 L 4.7089844 6.3808594 L 0.92382812 12.9375 C 0.84608043 13.071704 0.80061175 13.222152 0.79101562 13.376953 L 0.6953125 14.939453 C 0.6450301 15.763336 1.5580899 16.290013 2.2460938 15.833984 L 3.5507812 14.972656 C 3.6800599 14.887195 3.787709 14.77286 3.8652344 14.638672 L 5.8125 11.269531 C 6.5345664 11.516701 7.2485462 11.800781 8.046875 11.800781 C 8.6425695 11.800781 9.2438288 11.636087 9.84375 11.5 L 11.654297 14.636719 C 11.731577 14.771617 11.839246 14.88664 11.96875 14.972656 L 13.275391 15.833984 C 13.963048 16.287373 14.873287 15.761664 14.824219 14.939453 L 14.730469 13.376953 C 14.721469 13.222311 14.676669 13.071873 14.599609 12.9375 L 12.917969 10.027344 C 13.001479 9.9546778 13.090963 9.9034002 13.171875 9.8242188 C 14.491585 8.5401622 15.306641 6.7092607 15.306641 4.7363281 C 15.306613 4.1878568 14.864851 3.7417382 14.316406 3.7363281 C 13.823103 3.7314981 13.313856 3.736904 12.904297 3.7324219 C 12.348225 3.7270519 11.894561 4.1763241 11.894531 4.7324219 C 11.894069 6.1606825 11.638224 6.3680761 11.125 6.9179688 L 10.8125 6.3789062 L 10.652344 6.5195312 C 10.701584 6.4708723 10.700524 6.3650403 10.746094 6.3085938 C 10.966253 6.119087 11.093137 5.8432206 11.09375 5.5527344 L 11.09375 3.2753906 C 11.093791 3.2701806 11.093791 3.2649736 11.09375 3.2597656 C 11.080744 2.4344787 10.461104 1.8363659 9.6953125 1.6015625 L 9.6953125 1.0078125 L 9.6953125 1 C 9.6952573 0.44773812 9.2475744 5.5217905e-05 8.6953125 0 L 7.7558594 0 L 6.828125 0 z M 6.828125 1 L 7.7558594 1 L 8.6953125 1 L 8.6953125 1.0078125 L 8.6953125 2.4003906 L 9.2128906 2.4003906 C 9.6984926 2.4003906 10.086185 2.7953615 10.09375 3.2753906 L 10.09375 5.5527344 L 10.085938 5.5527344 C 10.085937 5.6202577 10.047859 5.7111132 9.9492188 5.8085938 L 9.5390625 6.1699219 L 10.896484 8.5214844 C 11.17413 8.3176534 11.435562 8.0950206 11.662109 7.8339844 C 12.338147 7.044018 12.893927 6.6003175 12.894531 4.7324219 C 13.320095 4.7370752 13.826728 4.7316281 14.306641 4.7363281 C 14.306641 6.4311063 13.5994 8.0130183 12.474609 9.1074219 C 12.217279 9.3595122 11.928056 9.5816469 11.625 9.7851562 L 13.732422 13.4375 L 13.826172 15 L 12.521484 14.138672 L 10.369141 10.412109 C 9.6349666 10.662318 8.8007985 10.800781 8.046875 10.800781 C 7.0596076 10.800781 6.1245901 10.569731 5.3027344 10.148438 L 3 14.138672 L 1.6933594 15 L 1.7890625 13.4375 L 5.984375 6.171875 L 5.5703125 5.8085938 C 5.471659 5.7111132 5.4279569 5.6277704 5.4355469 5.5527344 L 5.4277344 5.5527344 L 5.4277344 3.2675781 C 5.4277344 2.795015 5.8208105 2.4003906 6.2988281 2.4003906 L 6.828125 2.4003906 L 6.828125 1.0078125 L 6.828125 1 z M 7.7578125 3.3339844 L 7.7578125 3.3457031 C 7.2470955 3.3457031 6.828125 3.7617232 6.828125 4.2734375 C 6.828125 4.7851049 7.2470955 5.2011719 7.7578125 5.2011719 L 7.7636719 5.2011719 C 8.2743888 5.1951522 8.6953125 4.7851049 8.6953125 4.2734375 C 8.6953125 3.7617232 8.2743888 3.3517731 7.7636719 3.3457031 L 7.7578125 3.3339844 z M 7.0546875 7.1152344 L 6.0234375 8.9023438 C 6.6241692 9.2090864 7.3101783 9.3925781 8.0390625 9.3925781 C 8.5436111 9.3925781 9.1193603 9.302246 9.640625 9.1484375 L 8.4667969 7.1152344 L 8.1972656 7.3535156 C 8.0834532 7.4735345 7.923011 7.5332031 7.7636719 7.5332031 L 7.7558594 7.5253906 L 7.7558594 7.5332031 C 7.60411 7.5332031 7.4475739 7.4735348 7.3261719 7.3535156 L 7.0546875 7.1152344 z "
     id="path816" />
  <path
     style="opacity:1;vector-effect:none;fill:#27303a;fill-opacity:0.75328082;stroke:none;stroke-width:1;stroke-linecap:butt;stroke-linejoin:miter;stroke-miterlimit:4;stroke-dasharray:none;stroke-dashoffset:0;stroke-opacity:1;marker:none;font-variant-east_asian:normal"
     d="m 6.8272385,1.0000047 v 0.00779 1.3929954 h -0.527626 c -0.4780176,0 -0.8715949,0.3943625 -0.8715949,0.8669256 v 2.284822 h 0.00779 c -0.00759,0.075036 0.036755,0.1577727 0.1354085,0.2552532 L 5.9836628,6.17199 1.7891126,13.437355 1.694171,15 3.0000069,14.137744 5.3035076,10.148642 c 0.8218557,0.421293 1.7551397,0.652136 2.7424071,0.652136 0.7539235,0 1.5895613,-0.138896 2.3237353,-0.389105 l 2.150971,3.726067 1.305836,0.862256 -0.09339,-1.562644 -2.108949,-3.652916 c 0.303056,-0.2035093 0.592475,-0.4249518 0.849805,-0.6770421 1.124791,-1.0944036 1.831906,-2.6756481 1.831906,-4.3704263 -0.479913,-0.0047 -0.986109,-1.67e-5 -1.411673,-0.00467 -6.04e-4,1.8678956 -0.556646,2.3119779 -1.232684,3.1019443 -0.226547,0.2610362 -0.488112,0.4841064 -0.765758,0.6879374 L 9.5385213,6.1704303 9.9494162,5.8077838 C 10.048056,5.7103033 10.086381,5.6200543 10.086381,5.552531 h 0.0078 V 3.2754898 C 10.086616,2.7954607 9.6988316,2.4007821 9.2132296,2.4007821 H 8.6949416 V 1.0077868 1 H 7.7564211 Z m 0.9307392,2.3346291 0.00618,0.010895 c 0.5107169,0.00607 0.9307392,0.4159119 0.9307392,0.9276262 0,0.5116674 -0.4200223,0.9216059 -0.9307392,0.9276256 h -0.00618 c -0.510717,0 -0.9307392,-0.4159582 -0.9307392,-0.9276256 0,-0.5117143 0.4200222,-0.9276262 0.9307392,-0.9276262 z m -0.7035024,3.7805433 0.2708178,0.238132 c 0.121402,0.1200192 0.2793786,0.1805442 0.431128,0.1805442 v -0.00775 l 0.00783,0.00783 c 0.1593391,0 0.3188722,-0.060526 0.4326846,-0.1805449 L 8.4677487,7.1152553 9.6412891,9.1479384 C 9.1200244,9.3017469 8.5427258,9.3922968 8.0381772,9.3922968 c -0.7288842,0 -1.413275,-0.1835298 -2.0140067,-0.4902725 z"
     id="path822"
     inkscape:connector-curvature="0" />
</svg>

<?xml version="1.0" encoding="UTF-8"?>
<!-- Created with Inkscape (http://www.inkscape.org/) -->
<svg width="16" height="16" version="1.1" xmlns="http://www.w3.org/2000/svg" xmlns:cc="http://creativecommons.org/ns#" xmlns:dc="http://purl.org/dc/elements/1.1/" xmlns:rdf="http://www.w3.org/1999/02/22-rdf-syntax-ns#">
	<defs>
		<style id="current-color-scheme" type="text/css">.ColorScheme-Text {color:#090d11;}.ColorScheme-Background{color:#ffffff;}</style>
	</defs>
	<metadata>
		<rdf:RDF>
			<cc:Work rdf:about="">
				<dc:format>image/svg+xml</dc:format>
				<dc:type rdf:resource="http://purl.org/dc/dcmitype/StillImage"/>
			</cc:Work>
		</rdf:RDF>
	</metadata>
	<path id="c" class="ColorScheme-Text" d="m6.8281 1v1.4004h-0.5293c-0.47802 0-0.87109 0.39462-0.87109 0.86719v2.2852h0.00781c-0.00759 0.075036 0.036112 0.15838 0.13477 0.25586l0.41406 0.36328-4.1953 7.2656-0.095703 1.5625 1.3066-0.86133 2.3027-3.9902c0.82186 0.42129 1.7569 0.65234 2.7441 0.65234 0.75392 0 1.5881-0.13846 2.3223-0.38867l2.1523 3.7266 1.3047 0.86133-0.09375-1.5625-2.1074-3.6523c0.30306-0.20351 0.59228-0.42564 0.84961-0.67773 1.1248-1.0944 1.832-2.6763 1.832-4.3711-0.47991-0.0047-0.98655 7.471e-4 -1.4121-0.00391-6.04e-4 1.8679-0.55638 2.3116-1.2324 3.1016-0.22655 0.26104-0.48798 0.48367-0.76562 0.6875l-1.3574-2.3516 0.41016-0.36133c0.09864-0.097481 0.13672-0.18834 0.13672-0.25586h0.0078v-2.2773c-0.0076-0.48003-0.39526-0.875-0.88086-0.875h-0.51757v-1.4004h-0.93945zm0.92969 2.334 0.00586 0.011719c0.51072 0.00607 0.93164 0.41602 0.93164 0.92773 0 0.51167-0.42092 0.92171-0.93164 0.92773h-0.00586c-0.51072 0-0.92969-0.41607-0.92969-0.92773 0-0.51171 0.41897-0.92773 0.92969-0.92773zm-0.70312 3.7812 0.27148 0.23828c0.1214 0.12002 0.27794 0.17969 0.42969 0.17969v-0.00781l0.00781 0.00781c0.15934 0 0.31978-0.059669 0.43359-0.17969l0.26953-0.23828 1.1738 2.0332c-0.52126 0.15381-1.097 0.24414-1.6016 0.24414-0.72888 0-1.4149-0.18349-2.0156-0.49023z" style="fill-opacity:.75;fill:currentColor"/>
	<path id="d" class="ColorScheme-Background" d="m6.8281 0c-0.55226 5.5218e-5 -0.99994 0.44774-1 1v0.5957c-0.77359 0.22881-1.4004 0.82724-1.4004 1.6719v2.2852c5.786e-4 0.2968 0.13296 0.57801 0.36133 0.76758 0.039844 0.046313 0.044011 0.16358 0.080078 0.19922l-0.16016-0.13867-3.7852 6.5566c-0.077748 0.1342-0.12322 0.28465-0.13281 0.43945l-0.095703 1.5625c-0.050282 0.82388 0.86278 1.3506 1.5508 0.89453l1.3047-0.86133c0.12928-0.085461 0.23693-0.1998 0.31445-0.33398l1.9473-3.3691c0.72207 0.24717 1.436 0.53125 2.2344 0.53125 0.59569 0 1.197-0.16469 1.7969-0.30078l1.8105 3.1367c0.07728 0.1349 0.18495 0.24992 0.31445 0.33594l1.3066 0.86133c0.68766 0.45339 1.5979-0.07232 1.5488-0.89453l-0.09375-1.5625c-9e-3 -0.15464-0.0538-0.30508-0.13086-0.43945l-1.6816-2.9102c0.08351-0.072666 0.17299-0.12394 0.25391-0.20313 1.3197-1.2841 2.1348-3.115 2.1348-5.0879-2.8e-5 -0.54847-0.44179-0.99459-0.99024-1-0.4933-0.00483-1.0026 5.759e-4 -1.4121-0.00391-0.55607-0.00537-1.0097 0.4439-1.0098 1-4.62e-4 1.4283-0.25631 1.6357-0.76953 2.1856l-0.3125-0.53906-0.16016 0.14062c0.04924-0.048659 0.04818-0.15449 0.09375-0.21094 0.22016-0.18951 0.34704-0.46537 0.34766-0.75586v-2.2773c4.1e-5 -0.00521 4.1e-5 -0.010417 0-0.015625-0.013006-0.82529-0.63265-1.4234-1.3984-1.6582v-0.60156c-5.52e-5 -0.55226-0.44774-0.99994-1-1h-0.93945zm0 1h1.8672v1.4004h0.51758c0.4856 0 0.87329 0.39497 0.88086 0.875v2.2773h-0.0078c-2e-6 0.067523-0.03808 0.15838-0.13672 0.25586l-0.41017 0.36133 1.3574 2.3516c0.27765-0.20383 0.53908-0.42646 0.76562-0.6875 0.67604-0.78997 1.2318-1.2337 1.2324-3.1016 0.42556 0.00465 0.9322-7.938e-4 1.4121 0.00391 0 1.6948-0.70724 3.2767-1.832 4.3711-0.25733 0.25209-0.54655 0.47422-0.84961 0.67773l2.1074 3.6523 0.09375 1.5625-1.3047-0.86133-2.1523-3.7266c-0.73417 0.25021-1.5683 0.38867-2.3223 0.38867-0.98727 0-1.9223-0.23105-2.7441-0.65234l-2.3027 3.9902-1.3066 0.86133 0.095703-1.5625 4.1953-7.2656-0.41406-0.36328c-0.098654-0.097481-0.14236-0.18082-0.13477-0.25586h-0.00781v-2.2852c0-0.47256 0.39308-0.86719 0.87109-0.86719h0.52929v-1.3926zm0.92969 2.334v0.011719c-0.51072 0-0.92969 0.41602-0.92969 0.92773 0 0.51167 0.41897 0.92773 0.92969 0.92773h0.00586c0.51072-0.00602 0.93164-0.41607 0.93164-0.92773 0-0.51171-0.42092-0.92166-0.93164-0.92773zm-0.70312 3.7812-1.0312 1.7871c0.60073 0.30674 1.2867 0.49023 2.0156 0.49023 0.50455 0 1.0803-0.090332 1.6016-0.24414l-1.1738-2.0332-0.26953 0.23828c-0.11381 0.12002-0.27425 0.17969-0.43359 0.17969l-0.00781-0.00781v0.00781c-0.15175 0-0.30829-0.059668-0.42969-0.17969z" style="fill-opacity:.5;fill:currentColor"/>
</svg>
